build/assets/images/svg/icons/lk/basket/time.svg

<svg width="48" height="48" viewBox="0 0 48 48" fill="none" xmlns="http://www.w3.org/2000/svg">
<rect width="48" height="48" rx="24" fill="#F4F7FB"/>
<path d="M24 20.5C24 19.9477 23.5523 19.5 23 19.5C22.4477 19.5 22 19.9477 22 20.5V25.5C22 26.0523 22.4477 26.5 23 26.5H26C26.5523 26.5 27 26.0523 27 25.5C27 24.9477 26.5523 24.5 26 24.5H24V20.5Z" fill="#203686"/>
<path fill-rule="evenodd" clip-rule="evenodd" d="M24 14C18.4772 14 14 18.4772 14 24C14 29.5228 18.4772 34 24 34C29.5228 34 34 29.5228 34 24C34 18.4772 29.5228 14 24 14ZM16 24C16 19.5817 19.5817 16 24 16C28.4183 16 32 19.5817 32 24C32 28.4183 28.4183 32 24 32C19.5817 32 16 28.4183 16 24Z" fill="#203686"/>
</svg>

<svg width="48" height="48" fill="none" xmlns="http://www.w3.org/2000/svg"><rect width="48" height="48" rx="24" fill="#F4F7FB"/><path d="M24 20.5a1 1 0 10-2 0v5a1 1 0 001 1h3a1 1 0 100-2h-2v-4z" fill="#203686"/><path fill-rule="evenodd" clip-rule="evenodd" d="M24 14c-5.523 0-10 4.477-10 10s4.477 10 10 10 10-4.477 10-10-4.477-10-10-10zm-8 10a8 8 0 1116 0 8 8 0 01-16 0z" fill="#203686"/></svg>
